X:1
T:Title
%%score { 1 | 2 }
L:1/8
Q:1/4=156
M:6/4
K:Eb
V:1 treble nm="Grand Piano"
V:2 bass 
V:1
 G6 G2 [FA]2 [_G=A]2 | [GB]6 E6 | E6 E2 D2 C2 | D12 | [DA]6 [DA]2 [_DG]2 [=DA]2 | [Fd]6 [DAc]6 | %6
w: George~Bennard * * *||||||
 [DAc]4 [DAB]2 [DF]4 [D_G]2 | [EG]12 | [Ge]6 [Fd]2 [Ge]2 [Af]2 | [Ge]6 [EB]6 | %10
w: ||||
 [Ed]4 [Ec]2 [Ec]4 [D=B]2 | [Ec]12 | e6 e2 d2 c2 | B6 G6 | [DB]6 [DA]2 C2 D2 | E12 | %16
w: ||||||
 G6 G2 _G2 =G2 | c6 B6 | E4 E2 E2 D2 C2 | D12 | [DA]6 [DA]2 [_DG]2 [=DA]2 | [Fd]6 [DAc]6 | %22
w: ||||||
 [DAc]4 [DAB]2 [DF]4 [D_G]2 | [EG]12 | [Ge]6 [Fd]2 [Ge]2 [Af]2 | [Ge]6 [EB]6 | %26
w: ||||
 [Ed]4 [Ec]2 [Ec]4 [D=B]2 | [Ec]12 | e6 e2 d2 c2 | B6 G6 | [DB]6 [DA]2 C2 D2 | %31
w: |||||
[M:10/4] E8- E2 z2 z8 |] %32
w: |
V:2
 [E,B,E]6 [E,B,E]2 [E,B,]2 [E,C]2 | [E,E]6 [E,G,B,]6 | [E,G,B,]6 [F,A,B,]2 [F,A,B,]2 [F,A,B,]2 | %3
 [B,,A,B,]12 | [B,,F,]6 [B,,F,]2 [B,,=E,]2 [B,,F,]2 | [B,,B,]6 B,,6 | B,,4 B,,2 [B,,B,]4 [B,,B,]2 | %7
 [E,B,]12 | [E,B,]6 [B,,B,]2 [B,,B,]2 [B,,B,]2 | [E,B,]6 [E,G,]6 | %10
 [A,,B,]4 [A,,A,]2 [A,,A,]4 [A,,A,]2 | [A,,A,]12 | [A,CE]6 [A,CE]2 [A,B,E]2 [A,E]2 | %13
 [E,G,E]6 [E,B,E]6 | [B,,B,]6 [B,,F,]2 [B,,A,]2 [B,,A,B,]2 | [E,G,B,]12 | %16
 [E,B,E]6 [E,B,E]2 [E,=A,E]2 [E,B,E]2 | [E,A,E]6 [E,G,E]6 | %18
 [E,G,B,]4 [E,G,B,]2 [F,A,B,]4 [F,A,B,]2 | [B,,A,B,]12 | [B,,F,]6 [B,,F,]2 [B,,=E,]2 [B,,F,]2 | %21
 [B,,B,]6 B,,6 | B,,4 B,,2 [B,,B,]4 [B,,B,]2 | [E,B,]12 | [E,B,]6 [B,,B,]2 [B,,B,]2 [B,,B,]2 | %25
 [E,B,]6 [E,G,]6 | [A,,B,]4 [A,,A,]2 [A,,A,]4 [A,,A,]2 | [A,,A,]12 | %28
 [A,CE]6 [A,CE]2 [A,B,E]2 [A,E]2 | [E,G,E]6 [E,B,E]6 | [B,,B,]6 [B,,F,]2 [B,,A,]2 [B,,A,B,]2 | %31
[M:10/4] [E,G,B,]8- [E,G,B,]2 z2 z8 |] %32

